X: 1642
T: the Soldier's Joy   #2
%S: s:2 b:13(6+7)
R: reel, hornpipe
B: O'Neill's 1850 #1642
Z: Nick Terhorst
M: C|
L: 1/8
K: D
FG | AFDF AFDF | A2d2 d2 \
[1,3 cB | AFDF AFDF | G2E2 E2 :|\
[2,4 de | fafd egec | d2d2 d2 :|
|: de | fdfd fagf | "^*"e[dc][cA][dc] efge |\
[1,3 fdfd fagf | edcB A2 :|\
[2,4 fafd egec | d2d2 d2 :|
%%text * Both the "scale" and "chord" pattern are in O'Neills, and both are valid in either repeat.
